X: 228
T: Mardon Park
%R: jig
B: "Twenty Four Country Dances for the Year 1793", Preston & Son, eds. p.94
F: http://www.vwml.org/browse/browse-collections-dance-tune-books/browse-prestons1793# 2014-8-7
Z: 2014 John Chambers <jc:trillian.mit.edu>
M: 6/8
L: 1/8
K: G
d |\
ded c2B | (B3 A2)B | cdc B2A | G2g gfg |\
e2c c2e | d2B B2g | ded cBA | GGG HG2 :|
G |\
B2B BAG | d2d g2f | egf efd | ^c2A A2a |\
a3 gfe | f2g a2b | afa gfe | ddd "D.C."d2 :|
% = = = = = = = = = = = = = = = = = = = = = = = = =
%%begintext align
%% Cast off 1 Cu: & lead thro the bottom .|
%%   Cast up 1 Cu: & lead thro the top :|
%%       Cross over 1 Cu: & turn :|.
%%            Right & left :|:
%%endtext
% = = = = = = = = = = = = = = = = = = = = = = = = =

%%sep 1 1 500
%%sep 1 1 500
